icons/folder-magnifying-glass-24.svg

<?xml version="1.0" encoding="UTF-8"?><svg id="icons" xmlns="http://www.w3.org/2000/svg" viewBox="0 0 24 24"><defs><style>.cls-1{fill:none;}.cls-1,.cls-2{stroke-width:0px;}</style></defs><rect class="cls-1" width="24" height="24"/><path class="cls-2" d="M12.20001,5l-1.20001-2h-7l-1.20001,2h-1.79999v16h10.54449c-.33887-.29822-.64337-.63324-.90802-1H2v-11h20v11h-.18164l1,1h.18164V5h-10.79999ZM22,8H2v-2h1.36621l1.2002-2h5.86719l1.2002,2h10.36621v2ZM18.92645,19.22925c.59998-.75201.97357-1.69244.97357-2.72925,0-2.43005-1.97003-4.40002-4.40002-4.40002s-4.40002,1.96997-4.40002,4.40002,1.96997,4.39996,4.40002,4.39996c1.04041,0,1.9837-.37622,2.73694-.97992l3.08423,3.08423c.18561.18561.48645.18591.67242.00067l.01709-.01703c.08954-.08917.13995-.21033.14008-.33673s-.04999-.24762-.1394-.33704l-3.0849-3.0849ZM12.1001,16.50006c0-1.87457,1.52545-3.40002,3.40002-3.40002s3.40002,1.52545,3.40002,3.40002-1.52545,3.39996-3.40002,3.39996-3.40002-1.52545-3.40002-3.39996Z"/></svg>

<svg xmlns="http://www.w3.org/2000/svg" viewBox="0 0 24 24"><path stroke-width="0" fill="none" d="M0 0h24v24H0z"/><path d="M12.2 5L11 3H4L2.8 5H1v16h10.544a6.039 6.039 0 0 1-.908-1H2V9h20v11h-.182l1 1H23V5H12.2zM22 8H2V6h1.366l1.2-2h5.868l1.2 2H22v2zm-3.074 11.23c.6-.753.974-1.693.974-2.73a4.4 4.4 0 1 0-4.4 4.4c1.04 0 1.984-.376 2.737-.98l3.084 3.084a.476.476 0 0 0 .673 0l.017-.016a.476.476 0 0 0 0-.674l-3.085-3.085zM12.1 16.5c0-1.875 1.526-3.4 3.4-3.4s3.4 1.525 3.4 3.4-1.525 3.4-3.4 3.4-3.4-1.525-3.4-3.4z" stroke-width="0"/></svg>
